icon/pk/video-one.svg

<svg viewBox="0 0 48 48" fill="none" xmlns="http://www.w3.org/2000/svg" height="1em" width="1em">
  <path d="M4 10C4 8.89543 4.89543 8 6 8H34C35.1046 8 36 8.89543 36 10V19L44 13V36L36 30V38C36 39.1046 35.1046 40 34 40H6C4.89543 40 4 39.1046 4 38V10Z" fill="#2F88FF" stroke="black" stroke-width="4" stroke-linecap="round" stroke-linejoin="round"/>
  <circle cx="17" cy="21" r="5" fill="#43CCF8" stroke="white" stroke-width="4" stroke-linecap="round" stroke-linejoin="round"/>
</svg>

<svg width="48" height="48" fill="none" xmlns="http://www.w3.org/2000/svg"><path d="M4 10a2 2 0 0 1 2-2h28a2 2 0 0 1 2 2v9l8-6v23l-8-6v8a2 2 0 0 1-2 2H6a2 2 0 0 1-2-2V10Z" fill="#2F88FF" stroke="#000" stroke-width="4" stroke-linecap="round" stroke-linejoin="round"/><circle cx="17" cy="21" r="5" fill="#43CCF8" stroke="#fff" stroke-width="4" stroke-linecap="round" stroke-linejoin="round"/></svg>
